X: 37846
T: Sophie's Lullaby
R: barndance
M: 4/4
K: Eminor
G3F E2D2|B,2D<F E4|B3A G2B<d|g2a2 b4|
g3f e2d2|B3A Bd3|G3F E2D2|B,2D<F E4:|
B3A G2B<d|g2f2 e4|b3a g2e2|d2A2 B4|
d3B A2G2|F2A2 D3E/F/|G3F E2D2|B,2D2 E4:|

